lib/flags/l/162.svg

<svg xmlns="http://www.w3.org/2000/svg" fill="none" viewBox="0 0 32 24"><mask id="162_svg__a" width="32" height="24" x="0" y="0" mask-type="alpha" maskUnits="userSpaceOnUse"><path fill="#fff" d="M0 0H32V24H0z"/></mask><g fill-rule="evenodd" clip-rule="evenodd" mask="url(#162_svg__a)"><path fill="#5EAA22" d="M0 0H32V24H0V0Z"/><path fill="#4141DB" d="M0 0L32 24H0V0Z"/><path fill="#fff" d="M6 9 5 9.73205 5.13397 8.5 4 8 5.13397 7.5 5 6.26795 6 7 7 6.26795 6.86603 7.5 8 8 6.86603 8.5 7 9.73205 6 9zM4 15 3 15.7321 3.13397 14.5 2 14 3.13397 13.5 3 12.2679 4 13 5 12.2679 4.86603 13.5 6 14 4.86603 14.5 5 15.7321 4 15zM8 21 7 21.7321 7.13397 20.5 6 20 7.13397 19.5 7 18.2679 8 19 9 18.2679 8.86603 19.5 10 20 8.86603 20.5 9 21.7321 8 21zM9 11.5 8.5 11.866 8.56699 11.25 8 11 8.56699 10.75 8.5 10.134 9 10.5 9.5 10.134 9.43301 10.75 10 11 9.43301 11.25 9.5 11.866 9 11.5z"/><path fill="#FECA00" d="M21.5611 12.224C21.1873 11.834 24.5513 10.9177 24.9 9.73616 25.3621 8.70747 25.0534 7.87392 23.3072 7.14187 21.5611 6.40982 19.7964 4.99434 21.8256 4.99434 23.8549 4.99434 23.8549 5.28368 24.4 6.13718 24.9452 6.99068 26.1235 7.1735 26.1485 6.13718 26.1485 4.37138 26.3151 4.13389 24.8897 2.59872 23.4642 1.06355 28.4641 3.22915 28.0509 5.86094 27.6376 8.49273 27.1401 7.64351 27.4559 8.0853 27.7718 8.52709 29.6722 7.15569 29.4349 8.9825 28.77 10.0331 27.4514 11.5964 21.5611 12.224zM16 17C18.7614 17 21 14.7614 21 12 21 9.23858 18.7614 7 16 7 13.2386 7 11 9.23858 11 12 11 14.7614 13.2386 17 16 17z"/><path fill="#548650" d="M12.9529 10.162C13.5201 10.0356 14.2956 11.5543 15.6953 10.9847C17.0951 10.4151 17.3874 9.32761 18.0524 9.72561C18.7175 10.1236 18.8048 11.0819 18.3618 11.5635C17.9187 12.0452 17.1669 12.1591 17.1669 12.7679C17.1669 13.3766 17.0195 15.5475 16.7322 14.9184C15.8706 14.2193 16.3963 13.1059 15.335 12.7679C14.2737 12.4299 13.6292 12.4412 12.8463 12.5838C12.0634 12.7265 13.3722 12.192 13.6498 11.6846C14.215 11.1409 12.6936 10.3428 12.9529 10.162Z"/></g></svg>

<svg xmlns="http://www.w3.org/2000/svg" fill="none" viewBox="0 0 32 24"><mask id="162_svg__a" width="32" height="24" x="0" y="0" maskUnits="userSpaceOnUse"><path fill="#fff" d="M0 0h32v24H0z"/></mask><g fill-rule="evenodd" clip-rule="evenodd" mask="url(#162_svg__a)"><path fill="#5EAA22" d="M0 0h32v24H0V0z"/><path fill="#4141DB" d="M0 0l32 24H0V0z"/><path fill="#fff" d="M6 9l-1 .732.134-1.232L4 8l1.134-.5L5 6.268 6 7l1-.732L6.866 7.5 8 8l-1.134.5L7 9.732 6 9zm-2 6l-1 .732.134-1.232L2 14l1.134-.5L3 12.268 4 13l1-.732-.134 1.232L6 14l-1.134.5L5 15.732 4 15zm4 6l-1 .732.134-1.232L6 20l1.134-.5L7 18.268 8 19l1-.732-.134 1.232L10 20l-1.134.5L9 21.732 8 21zm1-9.5l-.5.366.067-.616L8 11l.567-.25-.067-.616.5.366.5-.366-.067.616L10 11l-.567.25.067.616L9 11.5z"/><path fill="#FECA00" d="M21.561 12.224c-.374-.39 2.99-1.306 3.339-2.488.462-1.029.153-1.862-1.593-2.594-1.746-.732-3.51-2.148-1.481-2.148s2.029.29 2.574 1.143c.545.854 1.724 1.036 1.748 0 0-1.766.167-2.003-1.258-3.538-1.426-1.536 3.574.63 3.16 3.262-.412 2.632-.91 1.782-.594 2.224.316.442 2.216-.93 1.979.897-.665 1.051-1.984 2.614-7.874 3.242z"/><path fill="#FECA00" d="M16 17a5 5 0 100-10 5 5 0 000 10z"/><path fill="#548650" d="M12.953 10.162c.567-.126 1.343 1.392 2.742.823 1.4-.57 1.692-1.657 2.357-1.26.666.399.753 1.357.31 1.838-.443.482-1.195.596-1.195 1.205 0 .609-.148 2.78-.435 2.15-.861-.699-.336-1.812-1.397-2.15-1.061-.338-1.706-.327-2.489-.184-.783.143.526-.392.804-.9.565-.543-.956-1.341-.697-1.522z"/></g></svg>
